X:76
T:Woodbine Cottage
O:No 76 Wm Clarke MS  Feltwell, Norfolk
N:Flow directions edited
I:abc2nwc
M:6/8
L:1/8
K:C
|:G|c2d edc|A2c G2E|G2c cde|f2d d2G|
c2d edc|A2c G2E|A2c d2e|c3-c2:|
|:e|d2g g^fg|e2g g^fg|d2g g^fg|ege c2e|
d2g g^fg|e2g g^fg|^faf de^f|gag =fed||]

